images/14710.svg

<?xml version="1.0" encoding="UTF-8"?>
<svg xmlns="http://www.w3.org/2000/svg" xmlns:xlink="http://www.w3.org/1999/xlink" width="300pt" height="300pt" viewBox="0 0 300 300" version="1.1">
<defs>
<g>
<symbol overflow="visible" id="glyph0-0">
<path style="stroke:none;" d="M 0.640625 2.296875 L 0.640625 -9.171875 L 7.140625 -9.171875 L 7.140625 2.296875 Z M 1.375 1.578125 L 6.421875 1.578125 L 6.421875 -8.4375 L 1.375 -8.4375 Z M 1.375 1.578125 "/>
</symbol>
<symbol overflow="visible" id="glyph0-1">
<path style="stroke:none;" d="M 1.28125 -9.484375 L 3 -9.484375 L 7.203125 -1.546875 L 7.203125 -9.484375 L 8.453125 -9.484375 L 8.453125 0 L 6.71875 0 L 2.515625 -7.921875 L 2.515625 0 L 1.28125 0 Z M 1.28125 -9.484375 "/>
</symbol>
<symbol overflow="visible" id="glyph0-2">
<path style="stroke:none;" d="M 1.28125 -9.484375 L 2.5625 -9.484375 L 2.5625 -5.59375 L 7.21875 -5.59375 L 7.21875 -9.484375 L 8.5 -9.484375 L 8.5 0 L 7.21875 0 L 7.21875 -4.515625 L 2.5625 -4.515625 L 2.5625 0 L 1.28125 0 Z M 1.28125 -9.484375 "/>
</symbol>
<symbol overflow="visible" id="glyph0-3">
<path style="stroke:none;" d="M 2.5625 -4.53125 L 2.5625 -1.046875 L 4.609375 -1.046875 C 5.304688 -1.046875 5.816406 -1.1875 6.140625 -1.46875 C 6.472656 -1.757812 6.640625 -2.203125 6.640625 -2.796875 C 6.640625 -3.390625 6.472656 -3.828125 6.140625 -4.109375 C 5.816406 -4.390625 5.304688 -4.53125 4.609375 -4.53125 Z M 2.5625 -8.421875 L 2.5625 -5.5625 L 4.453125 -5.5625 C 5.078125 -5.5625 5.539062 -5.675781 5.84375 -5.90625 C 6.15625 -6.144531 6.3125 -6.507812 6.3125 -7 C 6.3125 -7.476562 6.15625 -7.832031 5.84375 -8.0625 C 5.539062 -8.300781 5.078125 -8.421875 4.453125 -8.421875 Z M 1.28125 -9.484375 L 4.546875 -9.484375 C 5.523438 -9.484375 6.28125 -9.28125 6.8125 -8.875 C 7.34375 -8.46875 7.609375 -7.890625 7.609375 -7.140625 C 7.609375 -6.554688 7.472656 -6.09375 7.203125 -5.75 C 6.929688 -5.40625 6.53125 -5.191406 6 -5.109375 C 6.632812 -4.972656 7.125 -4.691406 7.46875 -4.265625 C 7.820312 -3.835938 8 -3.300781 8 -2.65625 C 8 -1.8125 7.707031 -1.15625 7.125 -0.6875 C 6.550781 -0.226562 5.734375 0 4.671875 0 L 1.28125 0 Z M 1.28125 -9.484375 "/>
</symbol>
<symbol overflow="visible" id="glyph0-4">
<path style="stroke:none;" d="M 5.34375 -6.015625 C 5.207031 -6.085938 5.0625 -6.140625 4.90625 -6.171875 C 4.757812 -6.210938 4.59375 -6.234375 4.40625 -6.234375 C 3.75 -6.234375 3.242188 -6.019531 2.890625 -5.59375 C 2.535156 -5.164062 2.359375 -4.550781 2.359375 -3.75 L 2.359375 0 L 1.1875 0 L 1.1875 -7.109375 L 2.359375 -7.109375 L 2.359375 -6 C 2.597656 -6.4375 2.914062 -6.757812 3.3125 -6.96875 C 3.707031 -7.175781 4.1875 -7.28125 4.75 -7.28125 C 4.832031 -7.28125 4.921875 -7.273438 5.015625 -7.265625 C 5.109375 -7.253906 5.21875 -7.238281 5.34375 -7.21875 Z M 5.34375 -6.015625 "/>
</symbol>
<symbol overflow="visible" id="glyph1-0">
<path style="stroke:none;" d="M 0.546875 1.9375 L 0.546875 -7.75 L 6.046875 -7.75 L 6.046875 1.9375 Z M 1.171875 1.328125 L 5.4375 1.328125 L 5.4375 -7.140625 L 1.171875 -7.140625 Z M 1.171875 1.328125 "/>
</symbol>
<symbol overflow="visible" id="glyph1-1">
<path style="stroke:none;" d="M 5.0625 -6.890625 L 5.0625 -3.90625 L 8.046875 -3.90625 L 8.046875 -2.984375 L 5.0625 -2.984375 L 5.0625 0 L 4.15625 0 L 4.15625 -2.984375 L 1.171875 -2.984375 L 1.171875 -3.90625 L 4.15625 -3.90625 L 4.15625 -6.890625 Z M 5.0625 -6.890625 "/>
</symbol>
<symbol overflow="visible" id="glyph1-2">
<path style="stroke:none;" d="M 2.109375 -0.90625 L 5.890625 -0.90625 L 5.890625 0 L 0.8125 0 L 0.8125 -0.90625 C 1.21875 -1.332031 1.773438 -1.90625 2.484375 -2.625 C 3.203125 -3.34375 3.648438 -3.804688 3.828125 -4.015625 C 4.171875 -4.410156 4.410156 -4.742188 4.546875 -5.015625 C 4.691406 -5.285156 4.765625 -5.550781 4.765625 -5.8125 C 4.765625 -6.238281 4.613281 -6.582031 4.3125 -6.84375 C 4.019531 -7.113281 3.628906 -7.25 3.140625 -7.25 C 2.804688 -7.25 2.445312 -7.1875 2.0625 -7.0625 C 1.6875 -6.945312 1.285156 -6.769531 0.859375 -6.53125 L 0.859375 -7.625 C 1.296875 -7.800781 1.703125 -7.9375 2.078125 -8.03125 C 2.460938 -8.125 2.8125 -8.171875 3.125 -8.171875 C 3.957031 -8.171875 4.617188 -7.960938 5.109375 -7.546875 C 5.609375 -7.128906 5.859375 -6.570312 5.859375 -5.875 C 5.859375 -5.539062 5.796875 -5.226562 5.671875 -4.9375 C 5.546875 -4.644531 5.320312 -4.296875 5 -3.890625 C 4.90625 -3.785156 4.617188 -3.484375 4.140625 -2.984375 C 3.660156 -2.492188 2.984375 -1.800781 2.109375 -0.90625 Z M 2.109375 -0.90625 "/>
</symbol>
<symbol overflow="visible" id="glyph1-3">
<path style="stroke:none;" d="M 0.53125 -3.453125 L 3.4375 -3.453125 L 3.4375 -2.578125 L 0.53125 -2.578125 Z M 0.53125 -3.453125 "/>
</symbol>
</g>
</defs>
<g id="surface47801">
<rect x="0" y="0" width="300" height="300" style="fill:rgb(100%,100%,100%);fill-opacity:1;stroke:none;"/>
<path style="fill:none;stroke-width:1.2;stroke-linecap:butt;stroke-linejoin:miter;stroke:rgb(0%,0%,0%);stroke-opacity:1;stroke-miterlimit:10;" d="M 116.253906 246.667969 L 147.109375 235.53125 "/>
<path style="fill:none;stroke-width:1.2;stroke-linecap:butt;stroke-linejoin:miter;stroke:rgb(0%,0%,0%);stroke-opacity:1;stroke-miterlimit:10;" d="M 147.109375 235.53125 L 150 219.386719 "/>
<path style="fill:none;stroke-width:1.2;stroke-linecap:butt;stroke-linejoin:miter;stroke:rgb(0%,0%,100%);stroke-opacity:1;stroke-miterlimit:10;" d="M 150 219.386719 L 152.890625 203.242188 "/>
<path style="fill:none;stroke-width:1.2;stroke-linecap:butt;stroke-linejoin:miter;stroke:rgb(0%,0%,100%);stroke-opacity:1;stroke-miterlimit:10;" d="M 152.890625 203.242188 L 168.320312 197.671875 "/>
<path style="fill:none;stroke-width:1.2;stroke-linecap:butt;stroke-linejoin:miter;stroke:rgb(0%,0%,0%);stroke-opacity:1;stroke-miterlimit:10;" d="M 168.320312 197.671875 L 183.746094 192.101562 "/>
<path style="fill:none;stroke-width:1.2;stroke-linecap:butt;stroke-linejoin:miter;stroke:rgb(0%,0%,100%);stroke-opacity:1;stroke-miterlimit:10;" d="M 153.355469 194.867188 L 165.699219 190.410156 "/>
<path style="fill:none;stroke-width:1.2;stroke-linecap:butt;stroke-linejoin:miter;stroke:rgb(0%,0%,0%);stroke-opacity:1;stroke-miterlimit:10;" d="M 165.699219 190.410156 L 178.039062 185.957031 "/>
<path style="fill:none;stroke-width:1.2;stroke-linecap:butt;stroke-linejoin:miter;stroke:rgb(0%,0%,0%);stroke-opacity:1;stroke-miterlimit:10;" d="M 127.816406 182.085938 L 140.355469 192.664062 "/>
<path style="fill:none;stroke-width:1.2;stroke-linecap:butt;stroke-linejoin:miter;stroke:rgb(0%,0%,100%);stroke-opacity:1;stroke-miterlimit:10;" d="M 140.355469 192.664062 L 152.890625 203.242188 "/>
<path style=" stroke:none;fill-rule:nonzero;fill:rgb(100%,100%,100%);fill-opacity:1;" d="M 142.890625 193.742188 L 162.890625 193.742188 L 162.890625 212.742188 L 142.890625 212.742188 Z M 142.890625 193.742188 "/>
<g style="fill:rgb(0%,0%,100%);fill-opacity:1;">
  <use xlink:href="#glyph0-1" x="142.890625" y="208.9375"/>
</g>
<g style="fill:rgb(0%,0%,100%);fill-opacity:1;">
  <use xlink:href="#glyph1-1" x="152.860352" y="204.054688"/>
</g>
<path style="fill:none;stroke-width:1.2;stroke-linecap:butt;stroke-linejoin:miter;stroke:rgb(0%,0%,0%);stroke-opacity:1;stroke-miterlimit:10;" d="M 183.746094 192.101562 L 208.820312 213.253906 "/>
<path style="fill:none;stroke-width:1.2;stroke-linecap:butt;stroke-linejoin:miter;stroke:rgb(0%,0%,0%);stroke-opacity:1;stroke-miterlimit:10;" d="M 189.527344 159.8125 L 183.746094 192.101562 "/>
<path style="fill:none;stroke-width:1.2;stroke-linecap:butt;stroke-linejoin:miter;stroke:rgb(0%,0%,0%);stroke-opacity:1;stroke-miterlimit:10;" d="M 208.820312 213.253906 L 239.675781 202.117188 "/>
<path style="fill:none;stroke-width:1.2;stroke-linecap:butt;stroke-linejoin:miter;stroke:rgb(0%,0%,0%);stroke-opacity:1;stroke-miterlimit:10;" d="M 209.285156 204.882812 L 233.96875 195.972656 "/>
<path style="fill:none;stroke-width:1.2;stroke-linecap:butt;stroke-linejoin:miter;stroke:rgb(0%,0%,0%);stroke-opacity:1;stroke-miterlimit:10;" d="M 239.675781 202.117188 L 245.457031 169.828125 "/>
<path style="fill:none;stroke-width:1.2;stroke-linecap:butt;stroke-linejoin:miter;stroke:rgb(0%,0%,0%);stroke-opacity:1;stroke-miterlimit:10;" d="M 239.675781 202.117188 L 252.214844 212.695312 "/>
<path style="fill:none;stroke-width:1.2;stroke-linecap:butt;stroke-linejoin:miter;stroke:rgb(0%,0%,100%);stroke-opacity:1;stroke-miterlimit:10;" d="M 252.214844 212.695312 L 264.75 223.269531 "/>
<path style="fill:none;stroke-width:1.2;stroke-linecap:butt;stroke-linejoin:miter;stroke:rgb(0%,0%,0%);stroke-opacity:1;stroke-miterlimit:10;" d="M 245.457031 169.828125 L 220.382812 148.671875 "/>
<path style="fill:none;stroke-width:1.2;stroke-linecap:butt;stroke-linejoin:miter;stroke:rgb(0%,0%,0%);stroke-opacity:1;stroke-miterlimit:10;" d="M 237.972656 173.609375 L 217.914062 156.6875 "/>
<path style="fill:none;stroke-width:1.2;stroke-linecap:butt;stroke-linejoin:miter;stroke:rgb(0%,0%,0%);stroke-opacity:1;stroke-miterlimit:10;" d="M 220.382812 148.671875 L 189.527344 159.8125 "/>
<path style="fill:none;stroke-width:1.2;stroke-linecap:butt;stroke-linejoin:miter;stroke:rgb(0%,0%,0%);stroke-opacity:1;stroke-miterlimit:10;" d="M 189.527344 159.8125 L 164.457031 138.660156 "/>
<path style="fill:none;stroke-width:1.2;stroke-linecap:butt;stroke-linejoin:miter;stroke:rgb(0%,0%,0%);stroke-opacity:1;stroke-miterlimit:10;" d="M 182.042969 163.597656 L 161.984375 146.671875 "/>
<path style="fill:none;stroke-width:1.2;stroke-linecap:butt;stroke-linejoin:miter;stroke:rgb(0%,0%,0%);stroke-opacity:1;stroke-miterlimit:10;" d="M 164.457031 138.660156 L 170.238281 106.367188 "/>
<path style="fill:none;stroke-width:1.2;stroke-linecap:butt;stroke-linejoin:miter;stroke:rgb(0%,0%,0%);stroke-opacity:1;stroke-miterlimit:10;" d="M 133.597656 149.796875 L 164.457031 138.660156 "/>
<path style="fill:none;stroke-width:1.2;stroke-linecap:butt;stroke-linejoin:miter;stroke:rgb(0%,0%,0%);stroke-opacity:1;stroke-miterlimit:10;" d="M 170.238281 106.367188 L 145.164062 85.214844 "/>
<path style="fill:none;stroke-width:1.2;stroke-linecap:butt;stroke-linejoin:miter;stroke:rgb(0%,0%,0%);stroke-opacity:1;stroke-miterlimit:10;" d="M 162.753906 110.152344 L 142.695312 93.230469 "/>
<path style="fill:none;stroke-width:1.2;stroke-linecap:butt;stroke-linejoin:miter;stroke:rgb(0%,0%,0%);stroke-opacity:1;stroke-miterlimit:10;" d="M 145.164062 85.214844 L 114.308594 96.351562 "/>
<path style="fill:none;stroke-width:1.2;stroke-linecap:butt;stroke-linejoin:miter;stroke:rgb(0%,0%,0%);stroke-opacity:1;stroke-miterlimit:10;" d="M 114.308594 96.351562 L 108.527344 128.644531 "/>
<path style="fill:none;stroke-width:1.2;stroke-linecap:butt;stroke-linejoin:miter;stroke:rgb(0%,0%,0%);stroke-opacity:1;stroke-miterlimit:10;" d="M 121.328125 100.941406 L 116.703125 126.773438 "/>
<path style="fill:none;stroke-width:1.2;stroke-linecap:butt;stroke-linejoin:miter;stroke:rgb(0%,0%,0%);stroke-opacity:1;stroke-miterlimit:10;" d="M 114.308594 96.351562 L 101.769531 85.777344 "/>
<path style="fill:none;stroke-width:1.2;stroke-linecap:butt;stroke-linejoin:miter;stroke:rgb(0%,0%,100%);stroke-opacity:1;stroke-miterlimit:10;" d="M 101.769531 85.777344 L 89.234375 75.199219 "/>
<path style="fill:none;stroke-width:1.2;stroke-linecap:butt;stroke-linejoin:miter;stroke:rgb(0%,0%,0%);stroke-opacity:1;stroke-miterlimit:10;" d="M 108.527344 128.644531 L 133.597656 149.796875 "/>
<path style="fill:none;stroke-width:1.2;stroke-linecap:butt;stroke-linejoin:miter;stroke:rgb(0%,0%,0%);stroke-opacity:1;stroke-miterlimit:10;" d="M 133.597656 149.796875 L 127.816406 182.085938 "/>
<path style="fill:none;stroke-width:1.2;stroke-linecap:butt;stroke-linejoin:miter;stroke:rgb(0%,0%,0%);stroke-opacity:1;stroke-miterlimit:10;" d="M 140.617188 154.386719 L 135.992188 180.21875 "/>
<path style="fill:none;stroke-width:1.2;stroke-linecap:butt;stroke-linejoin:miter;stroke:rgb(0%,0%,0%);stroke-opacity:1;stroke-miterlimit:10;" d="M 127.816406 182.085938 L 96.960938 193.226562 "/>
<path style="fill:none;stroke-width:1.2;stroke-linecap:butt;stroke-linejoin:miter;stroke:rgb(0%,0%,0%);stroke-opacity:1;stroke-miterlimit:10;" d="M 96.960938 193.226562 L 71.886719 172.074219 "/>
<path style="fill:none;stroke-width:1.2;stroke-linecap:butt;stroke-linejoin:miter;stroke:rgb(0%,0%,0%);stroke-opacity:1;stroke-miterlimit:10;" d="M 89.476562 197.011719 L 69.417969 180.085938 "/>
<path style="fill:none;stroke-width:1.2;stroke-linecap:butt;stroke-linejoin:miter;stroke:rgb(0%,0%,0%);stroke-opacity:1;stroke-miterlimit:10;" d="M 91.179688 225.515625 L 96.960938 193.226562 "/>
<path style="fill:none;stroke-width:1.2;stroke-linecap:butt;stroke-linejoin:miter;stroke:rgb(0%,0%,0%);stroke-opacity:1;stroke-miterlimit:10;" d="M 71.886719 172.074219 L 41.03125 183.210938 "/>
<path style="fill:none;stroke-width:1.2;stroke-linecap:butt;stroke-linejoin:miter;stroke:rgb(0%,0%,0%);stroke-opacity:1;stroke-miterlimit:10;" d="M 41.03125 183.210938 L 35.25 215.5 "/>
<path style="fill:none;stroke-width:1.2;stroke-linecap:butt;stroke-linejoin:miter;stroke:rgb(0%,0%,0%);stroke-opacity:1;stroke-miterlimit:10;" d="M 48.050781 187.800781 L 43.425781 213.632812 "/>
<path style="fill:none;stroke-width:1.2;stroke-linecap:butt;stroke-linejoin:miter;stroke:rgb(0%,0%,0%);stroke-opacity:1;stroke-miterlimit:10;" d="M 35.25 215.5 L 60.324219 236.65625 "/>
<path style="fill:none;stroke-width:1.2;stroke-linecap:butt;stroke-linejoin:miter;stroke:rgb(0%,0%,0%);stroke-opacity:1;stroke-miterlimit:10;" d="M 60.324219 236.65625 L 91.179688 225.515625 "/>
<path style="fill:none;stroke-width:1.2;stroke-linecap:butt;stroke-linejoin:miter;stroke:rgb(0%,0%,0%);stroke-opacity:1;stroke-miterlimit:10;" d="M 60.789062 228.28125 L 85.472656 219.371094 "/>
<path style=" stroke:none;fill-rule:nonzero;fill:rgb(100%,100%,100%);fill-opacity:1;" d="M 61.234375 65.199219 L 89.234375 65.199219 L 89.234375 85.199219 L 61.234375 85.199219 Z M 61.234375 65.199219 "/>
<g style="fill:rgb(0%,0%,100%);fill-opacity:1;">
  <use xlink:href="#glyph0-2" x="61.234375" y="77.575195"/>
</g>
<g style="fill:rgb(0%,0%,100%);fill-opacity:1;">
  <use xlink:href="#glyph1-2" x="71.256836" y="82.458008"/>
</g>
<g style="fill:rgb(0%,0%,100%);fill-opacity:1;">
  <use xlink:href="#glyph0-1" x="78.325195" y="77.575195"/>
</g>
<path style=" stroke:none;fill-rule:nonzero;fill:rgb(100%,100%,100%);fill-opacity:1;" d="M 250.75 213.269531 L 278.75 213.269531 L 278.75 233.269531 L 250.75 233.269531 Z M 250.75 213.269531 "/>
<g style="fill:rgb(0%,0%,100%);fill-opacity:1;">
  <use xlink:href="#glyph0-1" x="250.75" y="225.645508"/>
  <use xlink:href="#glyph0-2" x="260.719727" y="225.645508"/>
</g>
<g style="fill:rgb(0%,0%,100%);fill-opacity:1;">
  <use xlink:href="#glyph1-2" x="270.742188" y="230.52832"/>
</g>
<path style=" stroke:none;fill-rule:nonzero;fill:rgb(100%,100%,100%);fill-opacity:1;" d="M 133.441406 43.832031 L 152.441406 43.832031 L 152.441406 62.832031 L 133.441406 62.832031 Z M 133.441406 43.832031 "/>
<g style="fill:rgb(50%,30%,10%);fill-opacity:1;">
  <use xlink:href="#glyph0-3" x="133.441406" y="59.027344"/>
  <use xlink:href="#glyph0-4" x="142.584961" y="59.027344"/>
</g>
<g style="fill:rgb(50%,30%,10%);fill-opacity:1;">
  <use xlink:href="#glyph1-3" x="148.064453" y="54.144531"/>
</g>
</g>
</svg>

<svg xmlns="http://www.w3.org/2000/svg" xmlns:xlink="http://www.w3.org/1999/xlink" width="300pt" height="300pt" viewBox="0 0 300 300"><defs><symbol overflow="visible"><path d="M.64 2.297v-11.47h6.5v11.47zm.735-.72h5.047V-8.436H1.375zm0 0"/></symbol><symbol overflow="visible" id="a"><path d="M1.28-9.484H3l4.203 7.937v-7.937h1.25V0H6.72L2.515-7.922V0H1.28zm0 0"/></symbol><symbol overflow="visible" id="c"><path d="M1.28-9.484h1.282v3.89H7.22v-3.89H8.5V0H7.22v-4.516H2.562V0H1.28zm0 0"/></symbol><symbol overflow="visible" id="e"><path d="M2.563-4.53v3.483h2.046c.695 0 1.206-.14 1.53-.422.333-.288.5-.733.5-1.327s-.167-1.03-.5-1.312c-.324-.28-.835-.42-1.53-.42zm0-3.892v2.86h1.89c.625 0 1.086-.114 1.39-.344.313-.24.47-.602.47-1.094 0-.477-.157-.832-.47-1.063-.304-.238-.765-.36-1.39-.36zM1.28-9.484h3.267c.976 0 1.734.203 2.266.61.53.405.796.983.796 1.733 0 .585-.137 1.046-.407 1.39-.273.344-.672.56-1.203.64.633.137 1.125.42 1.47.844.35.43.53.965.53 1.61 0 .844-.293 1.5-.875 1.97C6.55-.227 5.735 0 4.672 0h-3.39zm0 0"/></symbol><symbol overflow="visible" id="f"><path d="M5.344-6.016c-.137-.07-.282-.125-.438-.156-.148-.04-.312-.062-.5-.062-.656 0-1.164.214-1.515.64-.355.43-.53 1.043-.53 1.844V0H1.187v-7.11h1.17V-6c.24-.438.556-.758.954-.97.395-.206.876-.31 1.438-.31.082 0 .172.007.266.014.093.012.203.028.328.047zm0 0"/></symbol><symbol overflow="visible"><path d="M.547 1.938V-7.75h5.5v9.688zm.625-.61h4.266v-8.47H1.171zm0 0"/></symbol><symbol overflow="visible" id="b"><path d="M5.063-6.89v2.984h2.984v.922H5.062V0h-.906v-2.984H1.172v-.922h2.984V-6.89zm0 0"/></symbol><symbol overflow="visible" id="d"><path d="M2.11-.906h3.78V0H.814v-.906c.406-.426.96-1 1.67-1.72.72-.718 1.165-1.18 1.345-1.39.344-.394.582-.726.72-1 .143-.27.218-.535.218-.796 0-.426-.153-.77-.454-1.032-.292-.27-.683-.406-1.17-.406-.337 0-.697.063-1.08.188-.374.117-.777.292-1.203.53v-1.093c.437-.176.843-.313 1.218-.406.383-.095.735-.142 1.047-.142.832 0 1.492.21 1.984.625.5.418.75.977.75 1.672 0 .336-.063.648-.188.938-.125.292-.352.64-.672 1.046-.094.105-.383.406-.86.906L2.11-.906zm0 0"/></symbol><symbol overflow="visible" id="g"><path d="M.53-3.453h2.907v.875H.53zm0 0"/></symbol></defs><g><path fill="#fff" d="M0 0h300v300H0z"/><path d="M116.254 246.668l30.855-11.137M147.11 235.53l2.89-16.143" stroke-width="1.2" stroke="#000" stroke-miterlimit="10" fill="none"/><path d="M150 219.387l2.89-16.145M152.89 203.242l15.43-5.57" stroke-width="1.2" stroke="#00f" stroke-miterlimit="10" fill="none"/><path d="M168.32 197.672l15.426-5.57" stroke-width="1.2" stroke="#000" stroke-miterlimit="10" fill="none"/><path d="M153.355 194.867l12.344-4.457" stroke-width="1.2" stroke="#00f" stroke-miterlimit="10" fill="none"/><path d="M165.7 190.41l12.34-4.453M127.816 182.086l12.54 10.578" stroke-width="1.2" stroke="#000" stroke-miterlimit="10" fill="none"/><path d="M140.355 192.664l12.536 10.578" stroke-width="1.2" stroke="#00f" stroke-miterlimit="10" fill="none"/><path d="M142.89 193.742h20v19h-20zm0 0" fill="#fff"/><use xlink:href="#a" x="142.891" y="208.938" fill="#00f"/><use xlink:href="#b" x="152.86" y="204.055" fill="#00f"/><path d="M183.746 192.102l25.074 21.152M189.527 159.813l-5.78 32.29M208.82 213.254l30.856-11.137M209.285 204.883l24.684-8.91M239.676 202.117l5.78-32.29M239.676 202.117l12.54 10.578" stroke-width="1.2" stroke="#000" stroke-miterlimit="10" fill="none"/><path d="M252.215 212.695l12.535 10.575" stroke-width="1.2" stroke="#00f" stroke-miterlimit="10" fill="none"/><path d="M245.457 169.828l-25.074-21.156M237.973 173.61l-20.06-16.923M220.383 148.672l-30.856 11.14M189.527 159.813l-25.07-21.153M182.043 163.598l-20.06-16.926M164.457 138.66l5.78-32.293M133.598 149.797l30.86-11.137M170.238 106.367l-25.074-21.152M162.754 110.152l-20.06-16.922M145.164 85.215L114.31 96.352M114.31 96.352l-5.783 32.293M121.328 100.94l-4.625 25.833M114.31 96.352l-12.54-10.575" stroke-width="1.2" stroke="#000" stroke-miterlimit="10" fill="none"/><path d="M101.77 85.777L89.234 75.2" stroke-width="1.2" stroke="#00f" stroke-miterlimit="10" fill="none"/><path d="M108.527 128.645l25.07 21.152M133.598 149.797l-5.782 32.29M140.617 154.387l-4.625 25.832M127.816 182.086l-30.855 11.14M96.96 193.227l-25.073-21.153M89.477 197.012l-20.06-16.926M91.18 225.516l5.78-32.29M71.887 172.074L41.03 183.21M41.03 183.21l-5.78 32.29M48.05 187.8l-4.624 25.833M35.25 215.5l25.074 21.156M60.324 236.656l30.856-11.14M60.79 228.28l24.683-8.91" stroke-width="1.2" stroke="#000" stroke-miterlimit="10" fill="none"/><path d="M61.234 65.2h28v20h-28zm0 0" fill="#fff"/><use xlink:href="#c" x="61.234" y="77.575" fill="#00f"/><use xlink:href="#d" x="71.257" y="82.458" fill="#00f"/><use xlink:href="#a" x="78.325" y="77.575" fill="#00f"/><path d="M250.75 213.27h28v20h-28zm0 0" fill="#fff"/><g fill="#00f"><use xlink:href="#a" x="250.75" y="225.646"/><use xlink:href="#c" x="260.72" y="225.646"/></g><use xlink:href="#d" x="270.742" y="230.528" fill="#00f"/><path d="M133.44 43.832h19v19h-19zm0 0" fill="#fff"/><g fill="#7f4d1a"><use xlink:href="#e" x="133.441" y="59.027"/><use xlink:href="#f" x="142.585" y="59.027"/></g><use xlink:href="#g" x="148.064" y="54.145" fill="#7f4d1a"/></g></svg>
